public/avatar/shoe/129.svg

<svg xmlns:xlink="http://www.w3.org/1999/xlink" height="38.3" width="36.05" xmlns="http://www.w3.org/2000/svg"><use height="23.1" transform="translate(10.45 5.05)" width="20.8" xlink:href="#a"/><defs><g id="a" fill-rule="evenodd"><path d="m6.6-.65.55 2.25q.5 2.5.2 4L7.3 9.75l-1.1.45q.05-.7-.75-.55-.5.15-.7.7l-.1.55-1.7.65q-.3-.9-1.1-.7-.5.1-.8.75l-.2.65-1.65.35q0-1.05-1.05-.95-.65.05-.9.65l-.1.6-2.25.35q-.25-.95-1.2-.9-.6.05-.95.5l-.2.45q-3.45.1-4.85-1.15l-.1-2.45q-1.5-2.05-.6-4.75Q-11.75 1-6.65.9l2.3-3.4.05-2.8q.15-2.95.7-3.4 1.5-1.35 6.05-1.05 2.05.15 3.1 1.35Q6.95-6.85 6.6-.65" fill="#1b191e" transform="translate(13.35 9.8)"/><path d="M5.75-.35 6.6 4.4l-.05 1.05-.05.1.05.1-.05 3.3-.15-.2-1.2-.25Q4 8.75 3.8 10.3l-.45.2q-.65-1-1.75-.8-.9.2-1.45 1.8l-.45.1-.25-.65q-.45-.45-1.4-.3-1.35.05-1.65 1.55l-1 .15q-.7-1.15-1.7-1.1-1.25.05-1.7 1.2-1.85-.1-3.5-1.15l-.05-1.9-.15-.25q-.75-1-.75-2.45l.25-1.45q1.15-3.4 5.55-3.5h.4l.2-.25 2.4-3.45.2-.3-.05-.3.25-3.35.25-2.25q1.55-1 5.4-.75 1.95.15 2.6 1 .8.85.8 5.55L5.75-.7l-.05.2.05.15" fill="#2b282d" transform="translate(13.35 9.8)"/><path d="M-12 6.75q-.65-1.85 1-3.2 1.5-1.3 4-1.45 2.4-.1 3.3 1.55.95 1.7-.65 3.3Q-5.9 8.5-8.8 8.25q-2.8-.2-3.2-1.5" fill="#423e40" transform="translate(13.35 9.8)"/><path d="M-10.8 4.1q.35-.7 2.15-1.45 2.15-.95 2.8 1.05.4 1.25-1.15 2.4-1.55 1.15-2.85.5-1.95-1.05-.95-2.5" fill="#656162" transform="translate(13.35 9.8)"/><path d="M5.85-.85q1.15 5.5.6 6.2-.75.8-2.75 1.25.85-3.6-.15-4.75-.5-.55-.15-2.15l.4-2.35Q3.6-5 2.2-5.8.8-6.55.6-4.9.2-1.55-1.6-1.15l.4-5q.05-.3 1.7-.5 2.2-.3 3.35-.8l.95-.35q1.45.95 1.05 6.95M-3.3-1.4q-.4-.55-.3-3.45l.15-2.85.5 1.1-.35 5.2" fill="#423e40" transform="translate(13.35 9.8)"/><path d="M0-1.25q-1.6 3.45-4.25 3.2l2.05-2.6q1 .5 2.2-.6m-4-.25.55.7L-5 1.5q-.85-1.35 1-3" fill="#423e40" transform="translate(13.35 9.8)"/><path d="m.6 10.85-.2.75-.7.25q-.2-1.1-1.65-1-.9.1-1.35.8l-.3.7-1.05.15q-.8-1.05-1.95-.95-1.1.05-1.65.95l-3.4-.8V9.8l1.45.4q2.1.4 5.4.1 3.5-.25 7.3-1.7 3.1-1.2 4.1-2.15l.1 2.7q-.3-.5-1.4-.3-.65.1-1 .9l-.25.75-.8.3q-.3-1.1-1.55-.85-.8.15-1.1.9m4.15-18.1L.4-6.6l-1.55.5q0-.7 1.6-.9 3.75-.3 4.5-.95 1.4 2.2.9 7.35l.85 5.05Q5.6-.25 5.3-.75q.35-5.8-.55-6.5" fill="#656162" transform="translate(13.35 9.8)"/><path d="M6.65 6.55q-3 2.25-8.4 3.6-6.75 1.6-10.05-.15v-.55l2.95.6 7.55-.55q5.7-1.4 8-3.75l-.05.8" fill="#1b191e" transform="translate(13.35 9.8)"/></g></defs></svg>

<?xml version="1.0" encoding="UTF-8" standalone="no"?>
<svg xmlns:xlink="http://www.w3.org/1999/xlink" height="38.3px" width="36.05px" xmlns="http://www.w3.org/2000/svg">
  <g transform="matrix(1.0, 0.0, 0.0, 1.0, 23.8, 14.85)">
    <use height="23.1" transform="matrix(1.0, 0.0, 0.0, 1.0, -13.35, -9.8)" width="20.8" xlink:href="#shape0"/>
  </g>
  <defs>
    <g id="shape0" transform="matrix(1.0, 0.0, 0.0, 1.0, 13.35, 9.8)">
      <path d="M6.6 -0.65 L7.15 1.6 Q7.65 4.1 7.35 5.6 L7.3 9.75 6.2 10.2 Q6.25 9.5 5.45 9.65 4.95 9.8 4.75 10.35 L4.65 10.9 2.95 11.55 Q2.65 10.65 1.85 10.85 1.35 10.95 1.05 11.6 L0.85 12.25 -0.8 12.6 Q-0.8 11.55 -1.85 11.65 -2.5 11.7 -2.75 12.3 L-2.85 12.9 -5.1 13.25 Q-5.35 12.3 -6.3 12.35 -6.9 12.4 -7.25 12.85 L-7.45 13.3 Q-10.9 13.4 -12.3 12.15 L-12.4 9.7 Q-13.9 7.65 -13.0 4.95 -11.75 1.0 -6.65 0.9 L-4.35 -2.5 -4.3 -5.3 Q-4.15 -8.25 -3.6 -8.7 -2.1 -10.05 2.45 -9.75 4.5 -9.6 5.55 -8.4 6.95 -6.85 6.6 -0.65" fill="#1b191e" fill-rule="evenodd" stroke="none"/>
      <path d="M5.75 -0.35 L6.6 4.4 6.55 5.45 6.5 5.55 6.55 5.65 6.5 8.95 6.35 8.75 5.15 8.5 Q4.0 8.75 3.8 10.3 L3.35 10.5 Q2.7 9.5 1.6 9.7 0.7 9.9 0.15 11.5 L-0.3 11.6 -0.55 10.95 Q-1.0 10.5 -1.95 10.65 -3.3 10.7 -3.6 12.2 L-4.6 12.35 Q-5.3 11.2 -6.3 11.25 -7.55 11.3 -8.0 12.45 -9.85 12.35 -11.5 11.3 L-11.55 9.4 -11.7 9.15 Q-12.45 8.15 -12.45 6.7 L-12.2 5.25 Q-11.05 1.85 -6.65 1.75 L-6.25 1.75 -6.05 1.5 -3.65 -1.95 -3.45 -2.25 -3.5 -2.55 -3.25 -5.9 -3.0 -8.15 Q-1.45 -9.15 2.4 -8.9 4.35 -8.75 5.0 -7.9 5.8 -7.05 5.8 -2.35 L5.75 -0.7 5.7 -0.5 5.75 -0.35" fill="#2b282d" fill-rule="evenodd" stroke="none"/>
      <path d="M-12.0 6.75 Q-12.65 4.9 -11.0 3.55 -9.5 2.25 -7.0 2.1 -4.6 2.0 -3.7 3.65 -2.75 5.35 -4.35 6.95 -5.9 8.5 -8.8 8.25 -11.6 8.05 -12.0 6.75" fill="#423e40" fill-rule="evenodd" stroke="none"/>
      <path d="M-10.8 4.1 Q-10.45 3.4 -8.65 2.65 -6.5 1.7 -5.85 3.7 -5.45 4.95 -7.0 6.1 -8.55 7.25 -9.85 6.6 -11.8 5.55 -10.8 4.1" fill="#656162" fill-rule="evenodd" stroke="none"/>
      <path d="M5.85 -0.85 Q7.0 4.65 6.45 5.35 5.7 6.15 3.7 6.6 4.55 3.0 3.55 1.85 3.05 1.3 3.4 -0.3 L3.8 -2.65 Q3.6 -5.0 2.2 -5.8 0.8 -6.55 0.6 -4.9 0.2 -1.55 -1.6 -1.15 L-1.2 -6.15 Q-1.15 -6.45 0.5 -6.65 2.7 -6.95 3.85 -7.45 L4.8 -7.8 Q6.25 -6.85 5.85 -0.85" fill="#423e40" fill-rule="evenodd" stroke="none"/>
      <path d="M-3.3 -1.4 Q-3.7 -1.95 -3.6 -4.85 L-3.45 -7.7 -2.95 -6.6 -3.3 -1.4" fill="#423e40" fill-rule="evenodd" stroke="none"/>
      <path d="M0.0 -1.25 Q-1.6 2.2 -4.25 1.95 L-2.2 -0.65 Q-1.2 -0.15 0.0 -1.25" fill="#423e40" fill-rule="evenodd" stroke="none"/>
      <path d="M-4.0 -1.5 L-3.45 -0.8 -5.0 1.5 Q-5.85 0.15 -4.0 -1.5" fill="#423e40" fill-rule="evenodd" stroke="none"/>
      <path d="M0.6 10.85 L0.4 11.6 -0.3 11.85 Q-0.5 10.75 -1.95 10.85 -2.85 10.95 -3.3 11.65 L-3.6 12.35 -4.65 12.5 Q-5.45 11.45 -6.6 11.55 -7.7 11.6 -8.25 12.5 L-11.65 11.7 -11.65 9.8 -10.2 10.2 Q-8.1 10.6 -4.8 10.3 -1.3 10.05 2.5 8.6 5.6 7.4 6.6 6.45 L6.7 9.15 Q6.4 8.65 5.3 8.85 4.65 8.95 4.3 9.75 L4.05 10.5 3.25 10.8 Q2.95 9.7 1.7 9.95 0.9 10.1 0.6 10.85" fill="#656162" fill-rule="evenodd" stroke="none"/>
      <path d="M4.75 -7.25 L0.4 -6.6 -1.15 -6.1 Q-1.15 -6.8 0.45 -7.0 4.2 -7.3 4.95 -7.95 6.35 -5.75 5.85 -0.6 L6.7 4.45 Q5.6 -0.25 5.3 -0.75 5.65 -6.55 4.75 -7.25" fill="#656162" fill-rule="evenodd" stroke="none"/>
      <path d="M6.65 6.55 Q3.65 8.8 -1.75 10.15 -8.5 11.75 -11.8 10.0 L-11.8 9.45 -8.85 10.05 -1.3 9.5 Q4.4 8.1 6.7 5.75 L6.65 6.55" fill="#1b191e" fill-rule="evenodd" stroke="none"/>
    </g>
  </defs>
</svg>
